static/assets/img/icons/theme/design/polygon.svg

<svg height="24" viewBox="0 0 24 24" width="24" xmlns="http://www.w3.org/2000/svg"><g fill="none" fill-rule="evenodd"><path d="m0 0h24v24h-24z" opacity="0"/><path d="m8.08113883 20h7.83772237c.6456456 0 1.2188538-.4131451 1.4230249-1.0256584l2.3302567-6.9907699c.1973004-.5919012.0076054-1.2441281-.4763663-1.6378868l-6.2395926-5.07652386c-.5508082-.44813678-1.3403787-.44865857-1.8917787-.00125019l-6.25817959 5.07791415c-.48505489.3935757-.67543469 1.0465478-.47790494 1.639137l2.32979321 6.9893796c.20417107.6125133.77737934 1.0256584 1.42302495 1.0256584z" fill="#000"/></g></svg>

<svg width="24px" height="24px" viewBox="0 0 24 24" version="1.1" xmlns="http://www.w3.org/2000/svg" xmlns:xlink="http://www.w3.org/1999/xlink">
    <title>Icon For Polygon</title>
    <g stroke="none" stroke-width="1" fill="none" fill-rule="evenodd">
        <rect opacity="0" x="0" y="0" width="24" height="24"></rect>
        <path d="M8.08113883,20 L15.9188612,20 C16.5645068,20 17.137715,19.5868549 17.3418861,18.9743416 L19.6721428,11.9835717 C19.8694432,11.3916705 19.6797482,10.7394436 19.1957765,10.3456849 L12.9561839,5.26916104 C12.4053757,4.82102426 11.6158052,4.82050247 11.0644052,5.26791085 L4.80622561,10.345825 C4.32117072,10.7394007 4.13079092,11.3923728 4.32832067,11.984962 L6.65811388,18.9743416 C6.86228495,19.5868549 7.43549322,20 8.08113883,20 Z" fill="#000000"></path>
    </g>
</svg>
